pk/open.svg

<svg viewBox="0 0 48 48" fill="none" xmlns="http://www.w3.org/2000/svg" height="1em" width="1em">
  <path d="M27.9467 16.8281L40.7568 7.73711C41.6731 7.08684 42.9535 7.40693 43.4559 8.4119C43.7856 9.07125 43.688 9.86396 43.2083 10.4237L41 13L35.7241 20.0345C35.2788 20.6283 35.1989 21.4199 35.5166 22.0907L42.6471 37.1438C43.2756 38.4707 42.3078 40 40.8396 40H32.6363C31.6844 40 30.8645 39.3291 30.676 38.3961L27.5197 22.7739L27.1139 18.6553C27.0435 17.9409 27.3613 17.2436 27.9467 16.8281Z" stroke="black" stroke-width="4" stroke-linecap="round" stroke-linejoin="round"/>
  <path d="M28 23L35 21" stroke="black" stroke-width="4" stroke-linecap="round" stroke-linejoin="round"/>
  <path d="M19.9359 17.1028L7.20861 8.19574C6.30625 7.56424 5.05387 7.87714 4.55456 8.85884C4.21946 9.51768 4.31813 10.314 4.8039 10.8711L7 13.3898L12.2323 20.0262C12.7026 20.6227 12.7943 21.4342 12.4692 22.1207L5.35292 37.1438C4.7244 38.4707 5.69217 40 7.1604 40H15.322C16.2925 40 17.1229 39.3033 17.2916 38.3476L20 23L20.7526 19.1224C20.903 18.347 20.5831 17.5557 19.9359 17.1028Z" stroke="black" stroke-width="4" stroke-linecap="round" stroke-linejoin="round"/>
  <path d="M13 21L20 23" stroke="black" stroke-width="4" stroke-linecap="round" stroke-linejoin="round"/>
</svg>

<svg viewBox="0 0 48 48" fill="none" xmlns="http://www.w3.org/2000/svg" height="1em" width="1em">
  <path d="m27.947 16.828 12.81-9.09a1.832 1.832 0 0 1 2.451 2.686L41 13l-5.276 7.035a2 2 0 0 0-.207 2.056l7.13 15.053A2 2 0 0 1 40.84 40h-8.204a2 2 0 0 1-1.96-1.604L27.52 22.774l-.406-4.119a2 2 0 0 1 .833-1.827ZM28 23l7-2m-15.064-3.897L7.209 8.196a1.812 1.812 0 0 0-2.405 2.675L7 13.39l5.232 6.636a2 2 0 0 1 .237 2.095L5.353 37.144A2 2 0 0 0 7.16 40h8.162a2 2 0 0 0 1.97-1.652L20 23l.753-3.878a2 2 0 0 0-.817-2.02ZM13 21l7 2" stroke="#000" stroke-width="4" stroke-linecap="round" stroke-linejoin="round"/>
</svg>
